img/i/ereader.svg

<svg enable-background="new 0 0 512 512" viewBox="0 0 512 512" xmlns="http://www.w3.org/2000/svg"><path d="m128.579 11.584c-25.484 0-46.335 20.851-46.335 46.335v369.52l57.919-25.098v-390.757z" fill="#c21b23"/><path d="m325.502 8.109h-185.339v400.023l185.339-.395 104.254-112.655v-180.248z" fill="#ee3840"/><path d="m429.756 406.588v-104.253l-104.254 104.253z" fill="#ffb14d"/><path d="m325.502 10.425 104.254 104.254v-104.254z" fill="#ffb14d"/><path d="m128.579 407.747c-25.484 0-46.335 20.851-46.335 46.335s20.851 46.335 46.335 46.335h283.063v-92.67z" fill="#ebedec"/><path d="m441.339 303.487v-187.644-.012-104.247c0-6.397-5.187-11.584-11.583-11.584h-301.177c-31.936 0-57.918 25.982-57.918 57.919v396.163c0 31.936 25.982 57.919 57.919 57.919h301.176c6.397 0 11.584-5.187 11.584-11.584s-5.187-11.584-11.584-11.584h-6.531v-69.503h6.531c6.397 0 11.584-5.187 11.584-11.584v-104.247-.012zm-23.167 92.676h-64.703l64.703-64.703zm0-308.292-64.703-64.703h64.703zm-324.344-29.952c0-19.162 15.589-34.751 34.751-34.751v275.564c0 6.397 5.187 11.584 11.584 11.584s11.584-5.187 11.584-11.584v-275.565h168.957l97.469 97.469v178.059l-97.469 97.468h-168.957v-57.919c0-6.397-5.187-11.584-11.584-11.584s-11.584 5.187-11.584 11.584v57.919c-13.027 0-25.065 4.324-34.751 11.61zm306.229 430.914h-271.478c-19.162 0-34.751-15.589-34.751-34.751s15.589-34.751 34.751-34.751h271.478z" fill="#11113f"/></svg>

<?xml version="1.0" encoding="iso-8859-1"?>
<!-- Generator: Adobe Illustrator 19.0.0, SVG Export Plug-In . SVG Version: 6.00 Build 0)  -->
<svg version="1.1" id="Layer_1" xmlns="http://www.w3.org/2000/svg" xmlns:xlink="http://www.w3.org/1999/xlink" x="0px" y="0px"
	 viewBox="0 0 512 512" style="enable-background:new 0 0 512 512;" xml:space="preserve">
<path style="fill:#C21B23;" d="M128.579,11.584c-25.484,0-46.335,20.851-46.335,46.335v369.52l57.919-25.098V11.584H128.579z"/>
<polygon style="fill:#EE3840;" points="325.502,8.109 140.163,8.109 140.163,408.132 325.502,407.737 429.756,295.082 
	429.756,114.834 "/>
<g>
	<polygon style="fill:#FFB14D;" points="429.756,406.588 429.756,302.335 325.502,406.588 	"/>
	<polygon style="fill:#FFB14D;" points="325.502,10.425 429.756,114.679 429.756,10.425 	"/>
</g>
<path style="fill:#EBEDEC;" d="M128.579,407.747c-25.484,0-46.335,20.851-46.335,46.335c0,25.484,20.851,46.335,46.335,46.335
	h283.063v-92.67H128.579z"/>
<path style="fill:#11113F;" d="M441.339,303.487V115.843v-0.012V11.584C441.339,5.187,436.152,0,429.756,0H128.579
	C96.643,0,70.661,25.982,70.661,57.919v396.163c0,31.936,25.982,57.919,57.919,57.919h301.176c6.397,0,11.584-5.187,11.584-11.584
	c0-6.397-5.187-11.584-11.584-11.584h-6.531V419.33h6.531c6.397,0,11.584-5.187,11.584-11.584V303.499V303.487z M418.172,396.163
	h-64.703l64.703-64.703V396.163z M418.172,87.871l-64.703-64.703h64.703V87.871z M93.828,57.919
	c0-19.162,15.589-34.751,34.751-34.751v275.564c0,6.397,5.187,11.584,11.584,11.584s11.584-5.187,11.584-11.584V23.167h168.957
	l97.469,97.469v178.059l-97.469,97.468H151.747v-57.919c0-6.397-5.187-11.584-11.584-11.584s-11.584,5.187-11.584,11.584v57.919
	c-13.027,0-25.065,4.324-34.751,11.61V57.919z M400.057,488.833H128.579c-19.162,0-34.751-15.589-34.751-34.751
	c0-19.162,15.589-34.751,34.751-34.751h271.478V488.833z"/>
<g>
</g>
<g>
</g>
<g>
</g>
<g>
</g>
<g>
</g>
<g>
</g>
<g>
</g>
<g>
</g>
<g>
</g>
<g>
</g>
<g>
</g>
<g>
</g>
<g>
</g>
<g>
</g>
<g>
</g>
</svg>
